X:1
T:Cantiam tutti
T:André Vierendeels
T:Source : Melody from "Corona di Sacre canzoni o Laude spirituali" (tenor voice) Firenze---Eredi Francesco Orofri---1689 Editor :André Vierendeels (05/12/17). Notes : Original clef : C4 , other voices supplied editorially Editorial accidentals above the staff Music compiled by Matteo Cofrati
T:Cantiam tutti
T:©
T:©
C:André Vierendeels
Z:©
%%score [ 1 2 3 ]
L:1/8
Q:1/4=120
M:4/4
K:F
V:1 treble nm="Soprano" snm="S"
V:2 treble nm="Alto" snm="A"
V:3 treble-8 nm="Tenor" snm="T"
V:1
"^1)" A8 | B2 A2 G2 ^F2 | G4 G2 c2 | c2 B2 c2 d2 | =B6 A2 |"^4)" G2 A2 G2 F2 | G2 F2 G4 | %7
w: Can-|tiam tut- ti, can-|tia- mo gran|lo- di'al Cre- a-|tor, e|gra- zie'a lui ren-|dia- mo Dei|
w: Tut-|ta le ter- ra'e'l|Cie- lo, e|cio ch'in es- si|sta, con|a- mo- ro- so|ze- * lo,|
 A2 B2 A2 G2 |1[M:2/4] G4 ::2[M:4/4] G6 A2 || B2 A2 B2 d2 | A4 c2 A2 | G2 A2 A2 G2 | B2 A2 G4 | %14
w: so- vr'u- man fa-|vor,|vor, poi|che per sua po-|ten- za'e per|sua pro- vi- den-|za, ci die-|
w: cre- o sua Mae-|sta,|sta, e|con pe- so'e mi-|su- ra, la|cre- a- ta na-|tu- ra di-|
 c2 B2 c2 A2 | =B8 :| %16
w: de o- gni te-|sor.|
w: spon la sua bon-|tà.|
V:2
"^2)""^1)" F8 | G2 D2 D2 D2 | D4 D2 G2 | E2 D2 E2 A2 | D6 F2 | D2 D2 D2 D2 | D4 D2 E2 | %7
w: Can-|tiam tut- ti, can-|tia- mo Gran|lo- di'al Cre- a-|tor, e|gra- zie'a lui ren-|dia- mo Dei|
w: E|di man- to do-|rto, ve- ste|l'Au- ro- * ra'e'l|Sol, e|con- ser- v'a- dor-|na- to di|
 F2 D2 E2 D2 |1[M:2/4] D4 ::2[M:4/4] D6 F2 || G2 ^F2 G2 A2 |"^-natural" F2 G2 A2 E2 | E2 E2 F2 E2 | %13
w: so- vr'u- man fa-|vor,|vor, poi|che per sua po-|ten- * za'e per|sua pro- vi- den-|
w: fio- ri'e frut- ti'l|suol;|suol, con|Pro- vi- den- za'e-|ter- * na'e- gli|reg- g'e go- ver-|
 G2 F2 E2 D2 | E2 G2 E2 D2 | D8 :| %16
w: ea, ci die- *|de o- gni te-|sor.|
w: na, il tut- to,|e'l tut _ to|puol.|
V:3
"^3)" z4 z2 D2 |"^1)" G2 F2 G2 A2 | B4 B2 c2 | A2 G2 A2 ^F2 | G6 D2 |"^-natural" G2 F2 G2 A2 | %6
w: Can-|tiam tut- ti, can-|tia- mo Gran|lo- di'al Cre- a-|tor, e|gra- zie'a lui ren-|
w: I|tem- pi'e le sta-|gio- ni, An-|ni'e me- so'or- di-|no, e|nell' al- te ma-|
 B4 B2 c2 | A2 G2 A2 B2 |1[M:2/4] G4 ::2[M:4/4] G6 d2 || d2 d2 d2 d2 | c4 A2 A2 | c2 c2 c2 c2 | %13
w: dia- mo Dei|so- vr'u- man fa-|vor,|vor, poi|che per sua po-|ten- za'e per|sua pro- vi- den-|
w: gio- ni, le|Stel- le col- lo-|co,|co; e|tut- to'a pro di|no- i, ac-|chioc- chè gra- to|
 d4 c2 B2 | A2 G2 A2 ^F2 | G8 :| %16
w: za, ci die-|de o- gni te-|sor.|
w: poi, a- miam|chi si ci a-|mo.|

